!!!OTL: Schoen Adelheid Unga bruden kastade en halver gullring.
!!!ARE: Nordeuropa, Sverige
!!!YOR: 4, S. 66
!!    1934 gedruckt in Helsingfors
!!!SCT: Q2074D
!!!YEM: Copyright 1995, estate of Helmut Schaffrath.
**kern
*ICvox
*Ivox
*M4/4
*k[b-e-]
*g:
=1
{8d
8d
8f#
8f#
8g
8g
8b-
8a
=2
8.f#
16g
8a
8b-
4.g}
{8f#
=3
8.g
16a
8b-
8cc
8dd
8dd
8cc
8b-
=4
8fn
8a
2a
8r}
{8a
=5
4dd
8cc
8dd
4g
8a
8b-
=6
4cc
8a
8g
4.fn}
{8e-
=7
8.d
16e-
8fn
8g
8a
8b-
16a
16g
8fn
=8
4e-
2d
4r}
==
!!!AGN: Ballade, Entfuehrung, Adelige als Dienstmagd, Wiederfinden
!! Schwedische Fassung der Ballade. Tonart lt. Herausgeber: (dorisch G)
!!!ONB: ESAC (Essen Associative Code) Database: BALLADE
!!!AMT: simple quadruple
!!!AIN: vox
!!!EED: Helmut Schaffrath
!!!EEV: 1.0
*-
